X:7947
T:Jagolandet
C:anon.
O:Finland
N:After Uno Karlsson
R:Tango
Z:Transcribed by Frank Nordberg - http://www.musicaviva.com
F:http://abc.musicaviva.com/tunes/finland/jagolandet/jagolandet-2m.abc
V:1 Program 1 40 %Violin
V:2 Program 1 110 %Fiddle
M:C
L:1/8
K:Dm
V:1
uAdf|"Dm"ad/d/ fd ad/d/ fd|"A7"gfe2 z A^ce|"A7"ge/e/ e^c ge/e/ e^c|"Dn"def2 z ddd|
V:2
uDFd|fd/d/ dA fd/d/ dA|ed^c2 z EA^c|e^c/c/ cA e^c/c/ cA|FAd2 z FGA|
%
V:1
"Gm"dB/B/ BG dB/B/ BG|"Dm"dA/A/ AF dA/A/ AF|"Gm"G3^G "G#dim"AF- FE/D/|"A7  n.c."A4 z Adf|
V:2
BG/G/ GD BG/G/ GD|AF/F/ FD AF/F/ FD|B,4 =B,4|^C2B,2 .A, DFd|
%
V:1
"Dm"ad/d/ fd ad/d/ fd|"A7"gfe2 z A^ce|"A7"ge/e/ e^c ge/e/ e^c|"Dm"def2 z ddd|
V:2
fd/d/ dA fd/d/ dA|ed^c2 z EA^c|e^c/c/ cA e^c/c/ cA|FAd2 z FGA|
%
V:1
"Gm"dB/B/ BG dB/B/ BG|"Dm"dA/A/ AF dA/A/ AF|"Em7-5"G3B "A7"(AB) (=B^c)|
V:2
BG/G/ GD BG/G/ GD|AF/F/ FD AF/F/ FD|B,4 (^C2E2)|
%
V:1
"Dm"d2y"A7"("_Fine"vA2 "Dm"D)y:|z z2|:"Dm"(va3b) (a2g2)|"Dm"(f3g) (f2e2)|"Dm"(d3e) (d2c2)|
V:2
D2y(vA,2 D)y:|z z2|:[.A,2F2][.A,2F2] [.A,2F2][vA,E][vA,E]|[.A,2F2][.A,2F2] [.A,2F2][vA,E][vA,E]|[.A,2F2][.A,2F2] [.A,2F2][vA,F][vA,F]|
%
V:1
"Gm"B8|"A7"vA3=B ^c2A2|"Dm"d3e f2d2|"Gm"g3a b2g2|"A7"a8|
V:2
[.B,2G2][.B,2G2] [.B,2G2][vB,G][vB,G]|[.A,2E2][.A,2E2] [.A,2E2][vA,G][vA,G]|[.A,2F2][.A,2F2] [.A,2F2][vA,F][vA,F]|[.B,2G2][.B,2G2] [.B,2G2][vB,G][vB,G]|A,uA/vA/ uAuB AG FE|
%
V:1
|:"Dm"(va3b) (a2(3gag)|"Dm"(f3g) (f2(3efe)|"Dm"(d3e) (d2c2)|"Gm"B8|
V:2
|:[.A,2F2][.A,2F2] [.A,2F2][vA,E][vA,E]|[.A,2F2][.A,2F2] [.A,2F2][vA,E][vA,E]|[.A,2F2][.A,2F2] [.A,2F2][vA,F][vA,F]|[.B,2G2][.B,2G2] [.B,2G2][vB,G][vB,G]|
%
V:1
"A7"vA3=B ^c2A2|"Dm"d3e f2d2|"Gm"ag-g2 "A7"f2e2|"Dm"d2 "A7"v(A2 "Dm"D2 z2:|
V:2
[.A,2E2][.A,2E2] [.A,2E2][vA,G][vA,G]|[.A,2F2][.A,2F2] [.A,2F2][vA,F][vA,F]|[vB,2G2] z2 [v^C2E2] z2|"Dm"[A,2F2]"A7"([vA,2E2] [A,2F2] z2:|
%
V:1
|:"Dm"(vA,3D) (D2F2)|"Dm"(F3A) (A2F2)|"Dm"A3A G2F2|"A7"E8|
V:2
z8|(vA,3D) (D2F2)|F3F E2D2|^CA,/A,/ uA,A, (B,A,) (B,A,)|
%
V:1
"A7"(vA,3^C) (C2E2)|"A7"(E3G) (G2A2)|"Gm"B3B "A7"A2G2|"Dm"F8|
V:2
A,8|(vA,3^C) (C2E2)|G3G F2E^C|DA,/A,/ uA,uA, (B,A,) (B,A,)|
%
V:1
"Dm"(vA,3D) (D2F2)|"Dm"(F3A) (A2c2)|"D7"c3A B2A2|"Gm   Gm6"G8|
V:2
A,4 (A,2D2)|(D3F) (F2A2)|A3^F D2C2|B,4 [B,4E4]|
%
V:1
"Gm"vLG3A B2LG2|"Dm"A3B A2F2|"A7"EG-G2 F2E2|[1"Dm"D2 "A7"(vA,2 "Dm"D2) z2:|[2"Dm"D2 "A7"(vA,2 "Dm"D|]
